!!!COM: Bach, Johann Sebastian
!!!OPR: Joh. Seb. Bachs vierstimmige Choralgesänge
!!!XEN: Four-part Chorales
!!!OTL: Chorale 25. Christ lag in Todesbanden
!!!SCT: BWV 277
!!!SCA: Thematisch-systematisches Verzeichnis der musikalischen Werke Johann Sebastian Bach: Bach-Werke-Verzeichnis (Schmieder)
!!!YOR: Bach Gesellschaft Edition xxxix
!!!ENC: Steven Rasmussen
!!!CDT: 1685/3//-1750/7/28/
!!!OCY: Deutschland
!!!YEC: Copyright (c) 1994, 2000 Center for Computer Assisted Research in the Humanities
!!!YEM: Rights to all derivative editions reserved
!!!YEN: United States of America
**kern	**silbe	**kern	**silbe	**kern	**silbe	**kern	**silbe
*I:[BASSO]	*I:[BASSO]	*I:[TENORE]	*I:[TENORE]	*I:[ALTO]	*I:[ALTO]	*I:[SOPRANO]	*I:[SOPRANO]
*>[A,A,B]	*	*>[A,A,B]	*	*>[A,A,B]	*	*>[A,A,B]	*
*>A	*	*>A	*	*>A	*	*>A	*
*clefF4	*	*clefGv2	*	*clefG2	*	*clefG2	*
*k[]	*	*k[]	*	*k[]	*	*k[]	*
*a:	*	*a:	*	*a:	*	*a:	*
*M4/4	*	*M4/4	*	*M4/4	*	*M4/4	*
4D	.	8dL	.	4f	.	4a	Christder
.	.	8cJ	.	.	.	.	.
=1	=1	=1	=1	=1	=1	=1	=1
4D	.	4B	.	(8f	.	4g#	lagist
.	.	.	.	4e)	.	.	.
8CL	.	8cL	.	.	.	8aL	inwie-
8BBJ	.	8dJ	.	8g#	.	8bJ	.
(8AA	.	4e	.	4a	.	4cc	To--der
4A)	.	.	.	.	.	.	.
.	.	8fL	.	4b	.	4dd	-des-er-
8G#	.	8eJ	.	.	.	.	.
=2	=2	=2	=2	=2	=2	=2	=2
8AL	.	8e	.	8b	.	4cc	-ban--stan-
8F	.	4f	.	4a	.	.	.
8D	.	.	.	.	.	4b	.
8EJ	.	16eLL	.	8g#	.	.	.
.	.	16dJJ	.	.	.	.	.
4AA;	.	4c#;	.	4e;	.	4a;	-den-den
4C#	.	4A	.	4e	.	4a	fürund
=3	=3	=3	=3	=3	=3	=3	=3
8DL	.	4A	.	8eL	.	4f	un-hat
8FJ	.	.	.	8dJ	.	.	.
8EL	.	4B-	.	8c#L	.	4g	-seruns
8DJ	.	.	.	8dJ	.	.	.
8C#L	.	4A	.	4.e	.	4a	Sünd'bracht
8AAJ	.	.	.	.	.	.	.
4D	.	4A	.	.	.	8gL	ge-das
.	.	.	.	8d	.	8fJ	.
=4	=4	=4	=4	=4	=4	=4	=4
4A	.	8AL	.	8c#	.	8eL	-ge-Le-
.	.	8F	.	4d	.	8dJ	.
4AA	.	8G	.	.	.	4e	.
.	.	8EJ	.	8c#	.	.	.
4D;	.	4F;	.	4A;	.	4d;	-ben,-ben.
=:|!	=:|!	=:|!	=:|!	=:|!	=:|!	=:|!	=:|!
*>B	*	*>B	*	*>B	*	*>B	*
4r	.	4r	.	4r	.	4r	.
=5	=5	=5	=5	=5	=5	=5	=5
4.D	.	8FL	.	4A	.	8dL	Dess
.	.	8GJ	.	.	.	8eJ	.
.	.	4A	.	4d	.	4f	wir
8C	.	.	.	.	.	.	.
8BB-L	.	8GL	.	8dL	.	4g	sol-
8AAJ	.	8AJ	.	8cJ	.	.	.
4GG	.	4B-	.	8B-L	.	8dL	-len
.	.	.	.	8cJ	.	8eJ	.
=6	=6	=6	=6	=6	=6	=6	=6
8DL	.	8AL	.	8dL	.	4f	frÃ¶h-
8CJ	.	8fJ	.	8AJ	.	.	.
8BB-L	.	8fL	.	8dL	.	4g	-lich
8CJ	.	8eJ	.	8cJ	.	.	.
4FF;	.	4f;	.	4c;	.	4a;	sein,
8FL	.	4c	.	8fL	.	4a	Gott
8EJ	.	.	.	8gJ	.	.	.
=7	=7	=7	=7	=7	=7	=7	=7
4D	.	4F	.	8aL	.	4dd	lo-
.	.	.	.	8b-J	.	.	.
4E	.	4G	.	8b-L	.	4cc#	-ben
.	.	.	.	8aJ	.	.	.
4F#	.	8dL	.	4a	.	4dd	und
.	.	8cJ	.	.	.	.	.
4G#	.	4B	.	4e	.	8eeL	ihm
.	.	.	.	.	.	8ddJ	.
=8	=8	=8	=8	=8	=8	=8	=8
8AL	.	(8B	.	(8e	.	4cc	dank-
8FJ	.	4A)	.	4f)	.	.	.
8DL	.	.	.	.	.	4b	-bar
8EJ	.	8G#	.	8e	.	.	.
4AA;	.	4c;	.	4e;	.	4a;	sein,
4D	.	4d	.	4f	.	4b	und
=9	=9	=9	=9	=9	=9	=9	=9
4C	.	8GL	.	8fL	.	4cc	sin-
.	.	8cJ	.	8eJ	.	.	.
8FFL	.	4c	.	4f	.	8aL	-gen
8GGJ	.	.	.	.	.	8b-J	.
8AAL	.	8cL	Hal-	4f	Hal-	4cc	Hal-
8BB-J	.	8dJ	.	.	.	.	.
8CL	.	8eL	-le-	[4e	-le-	4g	-le-
8BB-J	.	8dJ	.	.	.	.	.
=10	=10	=10	=10	=10	=10	=10	=10
8AAL	.	8c#L	-lu-	8e]	.	(4f	-lu-
8FF	.	8A	.	4d	-lu-	.	.
8GG	.	8B-	.	.	.	4e)	.
8AAJ	.	16AL	.	8c#	.	.	.
.	.	16GJJ	.	.	.	.	.
2BB-;	.	2F;	-ja,	2d;	-ja,	2d;	-ja,
=11	=11	=11	=11	=11	=11	=11	=11
4FF#	Hal-	8AL	Hal-	4.d	.	4a	Hal-
.	.	8cJ	.	.	.	.	.
4GG	-le-	4B-	-le-	.	.	4g	-le-
.	.	.	.	8e	.	.	.
2AA	-lu-	4A	-lu-	8c#	.	(4f	-lu-
.	.	.	.	4d	.	.	.
.	.	[4G	.	.	.	4e)	.
.	.	.	.	8c#	.	.	.
=12	=12	=12	=12	=12	=12	=12	=12
1DD;	-ja!	4G]	.	1A;	.	1d;	-ja!
.	.	8F#L	.	.	.	.	.
.	.	8EJ	.	.	.	.	.
.	.	2F#;	-ja!	.	.	.	.
==|!	==|!	==|!	==|!	==|!	==|!	==|!	==|!
*-	*-	*-	*-	*-	*-	*-	*-
!!!RWG: Key is interpreted using the Humdrum key tool.
!!!URL-pdf: https://s9.imslp.org/files/imglnks/usimg/6/6b/IMSLP24489-PMLP09471-CCARH_Bach_Chorales.pdf#page=17 Musedata edition
!!!URL-pdf: https://s9.imslp.org/files/imglnks/usimg/7/7a/IMSLP04155-Bach_-_BGA_253-438.pdf#page=15 	Bach-Gesellschaft Ausgabe, Band 39 (pp.175-276) Leipzig: Breitkopf und Härtel, 1892. Plate B.W. XXXIX.
!!!END: 1994/05/11
!!!EMD: Converted from MuseData to Humdrum Dec 19, 2000, by Andreas Kornstaedt using muse2kern.
!!!EED: Craig Stuart Sapp
!!!EEV: 2024/03/31
!!!filter-keyboard: satb2gs
!!!title: @{OTL} (@{SCT})
